src/common/icons/else.svg

<svg width="63" height="63" viewBox="0 0 63 63" fill="none" xmlns="http://www.w3.org/2000/svg">
<circle cx="31.5" cy="31.5" r="31.5" fill="#8A8A8A"/>
<path d="M19.1784 22.8849C14.4497 29.0489 25.0892 40.8633 31 46C36.9108 40.8633 47.5503 29.0489 42.8216 22.8849C38.093 16.7208 32.9703 25.4532 31 30.5899C29.0297 25.4532 23.907 16.7208 19.1784 22.8849Z" fill="#FFA0C2"/>
<path d="M19.1784 22.8849C14.4497 29.0489 25.0892 40.8633 31 46C36.9108 40.8633 47.5503 29.0489 42.8216 22.8849C38.093 16.7208 32.9703 25.4532 31 30.5899C29.0297 25.4532 23.907 16.7208 19.1784 22.8849Z" fill="url(#paint0_linear_1673_23486)"/>
<path d="M42.8216 22.8849C47.5503 29.0489 36.9108 40.8633 31 46C25.0892 40.8633 14.4497 29.0489 19.1784 22.8849C23.907 16.7208 29.0297 25.4532 31 30.5899C32.9703 25.4532 38.093 16.7208 42.8216 22.8849Z" fill="url(#paint1_linear_1673_23486)"/>
<g filter="url(#filter0_d_1673_23486)">
<path d="M19.1784 22.8849C14.4497 29.0489 25.0892 40.8633 31 46C36.9108 40.8633 47.5503 29.0489 42.8216 22.8849C38.093 16.7208 32.9703 25.4532 31 30.5899C29.0297 25.4532 23.907 16.7208 19.1784 22.8849Z" fill="url(#paint2_radial_1673_23486)" shape-rendering="crispEdges"/>
</g>
<g filter="url(#filter1_f_1673_23486)">
<path fill-rule="evenodd" clip-rule="evenodd" d="M22.6425 20.7648C21.4984 20.7694 20.3268 21.3878 19.1784 22.8848C14.4497 29.0489 25.0892 40.8633 31 46C31.0871 45.9243 31.1753 45.8471 31.2645 45.7685C26.7199 39.4676 19.9743 27.4039 22.6425 20.7648Z" fill="white" fill-opacity="0.1"/>
</g>
<g filter="url(#filter2_f_1673_23486)">
<path fill-rule="evenodd" clip-rule="evenodd" d="M39.2281 20.7648C40.3722 20.7694 41.5438 21.3878 42.6922 22.8848C47.4209 29.0489 36.7814 40.8633 30.8706 46C30.7835 45.9243 30.6953 45.8471 30.6061 45.7685C35.1507 39.4676 41.8963 27.4039 39.2281 20.7648Z" fill="#EF4870" fill-opacity="0.33"/>
</g>
<g opacity="0.3" filter="url(#filter3_f_1673_23486)">
<ellipse rx="0.95512" ry="4.56659" transform="matrix(-0.832571 -0.553918 0.576881 -0.816828 35.6114 25.7886)" fill="white"/>
</g>
<g opacity="0.3" filter="url(#filter4_f_1673_23486)">
<ellipse cx="21.1514" cy="23.8235" rx="1.57576" ry="1.52941" fill="white"/>
</g>
<defs>
<filter id="filter0_d_1673_23486" x="12" y="15.7648" width="38" height="37.2352" filterUnits="userSpaceOnUse" color-interpolation-filters="sRGB">
<feFlood flood-opacity="0" result="BackgroundImageFix"/>
<feColorMatrix in="SourceAlpha" type="matrix" values="0 0 0 0 0 0 0 0 0 0 0 0 0 0 0 0 0 0 127 0" result="hardAlpha"/>
<feOffset dy="1"/>
<feGaussianBlur stdDeviation="3"/>
<feComposite in2="hardAlpha" operator="out"/>
<feColorMatrix type="matrix" values="0 0 0 0 0 0 0 0 0 0 0 0 0 0 0 0 0 0 0.15 0"/>
<feBlend mode="normal" in2="BackgroundImageFix" result="effect1_dropShadow_1673_23486"/>
<feBlend mode="normal" in="SourceGraphic" in2="effect1_dropShadow_1673_23486" result="shape"/>
</filter>
<filter id="filter1_f_1673_23486" x="16" y="18.7648" width="17.2644" height="29.2352" filterUnits="userSpaceOnUse" color-interpolation-filters="sRGB">
<feFlood flood-opacity="0" result="BackgroundImageFix"/>
<feBlend mode="normal" in="SourceGraphic" in2="BackgroundImageFix" result="shape"/>
<feGaussianBlur stdDeviation="1" result="effect1_foregroundBlur_1673_23486"/>
</filter>
<filter id="filter2_f_1673_23486" x="28.6062" y="18.7648" width="17.2644" height="29.2352" filterUnits="userSpaceOnUse" color-interpolation-filters="sRGB">
<feFlood flood-opacity="0" result="BackgroundImageFix"/>
<feBlend mode="normal" in="SourceGraphic" in2="BackgroundImageFix" result="shape"/>
<feGaussianBlur stdDeviation="1" result="effect1_foregroundBlur_1673_23486"/>
</filter>
<filter id="filter3_f_1673_23486" x="27.8589" y="17.0206" width="15.5049" height="17.5359" filterUnits="userSpaceOnUse" color-interpolation-filters="sRGB">
<feFlood flood-opacity="0" result="BackgroundImageFix"/>
<feBlend mode="normal" in="SourceGraphic" in2="BackgroundImageFix" result="shape"/>
<feGaussianBlur stdDeviation="2.5" result="effect1_foregroundBlur_1673_23486"/>
</filter>
<filter id="filter4_f_1673_23486" x="17.5757" y="20.2941" width="7.15161" height="7.05884" filterUnits="userSpaceOnUse" color-interpolation-filters="sRGB">
<feFlood flood-opacity="0" result="BackgroundImageFix"/>
<feBlend mode="normal" in="SourceGraphic" in2="BackgroundImageFix" result="shape"/>
<feGaussianBlur stdDeviation="1" result="effect1_foregroundBlur_1673_23486"/>
</filter>
<linearGradient id="paint0_linear_1673_23486" x1="38.0909" y1="43.7059" x2="19.6197" y2="28.6397" gradientUnits="userSpaceOnUse">
<stop stop-color="#FF3F61"/>
<stop offset="0.628737" stop-color="#FF4D82" stop-opacity="0"/>
</linearGradient>
<linearGradient id="paint1_linear_1673_23486" x1="23.9091" y1="43.7059" x2="42.3803" y2="28.6397" gradientUnits="userSpaceOnUse">
<stop stop-color="#FF3F61"/>
<stop offset="0.628737" stop-color="#FF4D82" stop-opacity="0"/>
</linearGradient>
<radialGradient id="paint2_radial_1673_23486" cx="0" cy="0" r="1" gradientUnits="userSpaceOnUse" gradientTransform="translate(31 32.6177) rotate(90) scale(14.9117 15.3636)">
<stop stop-color="#FF4874" stop-opacity="0.35"/>
<stop offset="0.572917" stop-color="#F26690" stop-opacity="0.32"/>
<stop offset="0.854167" stop-color="#F1608C"/>
</radialGradient>
</defs>
</svg>

<svg xmlns="http://www.w3.org/2000/svg" width="63" height="63" fill="none">
  <circle cx="31.5" cy="31.5" r="31.5" fill="#8A8A8A"/>
  <path fill="#FFA0C2" d="M19.178 22.885C14.45 29.049 25.09 40.863 31 46c5.91-5.137 16.55-16.951 11.822-23.115C38.093 16.72 32.97 25.453 31 30.59c-1.97-5.137-7.093-13.87-11.822-7.705Z"/>
  <path fill="url(#a)" d="M19.178 22.885C14.45 29.049 25.09 40.863 31 46c5.91-5.137 16.55-16.951 11.822-23.115C38.093 16.72 32.97 25.453 31 30.59c-1.97-5.137-7.093-13.87-11.822-7.705Z"/>
  <path fill="url(#b)" d="M42.822 22.885C47.55 29.049 36.91 40.863 31 46c-5.91-5.137-16.55-16.951-11.822-23.115C23.907 16.72 29.03 25.453 31 30.59c1.97-5.137 7.093-13.87 11.822-7.705Z"/>
  <g filter="url(#c)">
    <path fill="url(#d)" d="M19.178 22.885C14.45 29.049 25.09 40.863 31 46c5.91-5.137 16.55-16.951 11.822-23.115C38.093 16.72 32.97 25.453 31 30.59c-1.97-5.137-7.093-13.87-11.822-7.705Z" shape-rendering="crispEdges"/>
  </g>
  <g filter="url(#e)">
    <path fill="#fff" fill-opacity=".1" fill-rule="evenodd" d="M22.642 20.765c-1.144.004-2.315.623-3.464 2.12C14.45 29.049 25.09 40.863 31 46l.265-.231c-4.545-6.301-11.29-18.365-8.623-25.004Z" clip-rule="evenodd"/>
  </g>
  <g filter="url(#f)">
    <path fill="#EF4870" fill-opacity=".33" fill-rule="evenodd" d="M39.228 20.765c1.144.004 2.316.623 3.464 2.12 4.729 6.164-5.91 17.978-11.821 23.115a51.533 51.533 0 0 1-.265-.231c4.545-6.301 11.29-18.365 8.622-25.004Z" clip-rule="evenodd"/>
  </g>
  <g filter="url(#g)" opacity=".3">
    <ellipse fill="#fff" rx=".955" ry="4.567" transform="matrix(-.83257 -.55392 .57688 -.81683 35.611 25.789)"/>
  </g>
  <g filter="url(#h)" opacity=".3">
    <ellipse cx="21.151" cy="23.823" fill="#fff" rx="1.576" ry="1.529"/>
  </g>
  <defs>
    <filter id="c" width="38" height="37.235" x="12" y="15.765" color-interpolation-filters="sRGB" filterUnits="userSpaceOnUse">
      <feFlood flood-opacity="0" result="BackgroundImageFix"/>
      <feColorMatrix in="SourceAlpha" result="hardAlpha" values="0 0 0 0 0 0 0 0 0 0 0 0 0 0 0 0 0 0 127 0"/>
      <feOffset dy="1"/>
      <feGaussianBlur stdDeviation="3"/>
      <feComposite in2="hardAlpha" operator="out"/>
      <feColorMatrix values="0 0 0 0 0 0 0 0 0 0 0 0 0 0 0 0 0 0 0.15 0"/>
      <feBlend in2="BackgroundImageFix" result="effect1_dropShadow_1673_23486"/>
      <feBlend in="SourceGraphic" in2="effect1_dropShadow_1673_23486" result="shape"/>
    </filter>
    <filter id="e" width="17.264" height="29.235" x="16" y="18.765" color-interpolation-filters="sRGB" filterUnits="userSpaceOnUse">
      <feFlood flood-opacity="0" result="BackgroundImageFix"/>
      <feBlend in="SourceGraphic" in2="BackgroundImageFix" result="shape"/>
      <feGaussianBlur result="effect1_foregroundBlur_1673_23486" stdDeviation="1"/>
    </filter>
    <filter id="f" width="17.264" height="29.235" x="28.606" y="18.765" color-interpolation-filters="sRGB" filterUnits="userSpaceOnUse">
      <feFlood flood-opacity="0" result="BackgroundImageFix"/>
      <feBlend in="SourceGraphic" in2="BackgroundImageFix" result="shape"/>
      <feGaussianBlur result="effect1_foregroundBlur_1673_23486" stdDeviation="1"/>
    </filter>
    <filter id="g" width="15.505" height="17.536" x="27.859" y="17.021" color-interpolation-filters="sRGB" filterUnits="userSpaceOnUse">
      <feFlood flood-opacity="0" result="BackgroundImageFix"/>
      <feBlend in="SourceGraphic" in2="BackgroundImageFix" result="shape"/>
      <feGaussianBlur result="effect1_foregroundBlur_1673_23486" stdDeviation="2.5"/>
    </filter>
    <filter id="h" width="7.152" height="7.059" x="17.576" y="20.294" color-interpolation-filters="sRGB" filterUnits="userSpaceOnUse">
      <feFlood flood-opacity="0" result="BackgroundImageFix"/>
      <feBlend in="SourceGraphic" in2="BackgroundImageFix" result="shape"/>
      <feGaussianBlur result="effect1_foregroundBlur_1673_23486" stdDeviation="1"/>
    </filter>
    <linearGradient id="a" x1="38.091" x2="19.62" y1="43.706" y2="28.64" gradientUnits="userSpaceOnUse">
      <stop stop-color="#FF3F61"/>
      <stop offset=".629" stop-color="#FF4D82" stop-opacity="0"/>
    </linearGradient>
    <linearGradient id="b" x1="23.909" x2="42.38" y1="43.706" y2="28.64" gradientUnits="userSpaceOnUse">
      <stop stop-color="#FF3F61"/>
      <stop offset=".629" stop-color="#FF4D82" stop-opacity="0"/>
    </linearGradient>
    <radialGradient id="d" cx="0" cy="0" r="1" gradientTransform="matrix(0 14.9117 -15.3636 0 31 32.618)" gradientUnits="userSpaceOnUse">
      <stop stop-color="#FF4874" stop-opacity=".35"/>
      <stop offset=".573" stop-color="#F26690" stop-opacity=".32"/>
      <stop offset=".854" stop-color="#F1608C"/>
    </radialGradient>
  </defs>
</svg>
